X:1
T: Trail of the Lonesome Pine, The
I:
%C: S-T
M: C|
Z:
R: square
P: Intro
K: F
%%indent 400
z4 ^F2G2| "C7"A4 G2E2| C4 G4| "F"F8-| F2z2 |
|:A2^G2| \
"F"A4 C4| C2D2 C2A,2| "G7"=B,4 G4-| G4 ^F2G2| "C7"A4 G2E2| C4 G4| "F"F8-| F4 A2^G2|
"F"A4 C4| C2D2 C2A,2| "G"=B,4 D4| G8| "G7"G4 G4| G2G2 F2D2| "C"E2E2 F2^F2| "C7"G4 A2^G2|
"F7"A8-| A4 G2F2| G2A2 F2G2-| G4 A2F2| "Bb"G2 F6-| F4 F2D2| F2G2 ^G2"A"A2-| A4 "C7"A2^G2|
%%vskip 5pt
"C7"A4 C4| C2D2 C2A,2| "G7"=B,4 G4-| G4 ^F2G2 |["1-N" \
  "C7"A4 G2E2| C4 G4| "F"F8-| F4 :|
%
%%vskip 4pt
%%staffwidth     9cm
["Coda" "C7"A4 c2A2| c4 A4| "F"F8-| F4 |]
